X: 686
T: the Hornless Cow   #2
R: reel
%S: s:2 b:11(5+6)
B: Francis O'Neill: "The Dance Music of Ireland" (1907) #686
Z: Frank Nordberg - http://www.musicaviva.com
F: http://www.musicaviva.com/abc/tunes/ireland/oneill-1001/0686/oneill-1001-0686-1.abc
M: C|
L: 1/8
K: D
"^A"\
[| FAAF GFED | FAAc dABG | FAAF GBdB |\
[1 Adfe dcBA :|[2 AFDF E2D2 |]
"^B"\
[| afdf gfge | afdf (eB)B2 |\
[1 afdf gfge | afdf e2d2 :|[2 defg afbf | afdf e2d2 |]
